!!!SOCIAL_FUNCTION:	dance songs
!!!PDT:	1957
!!!OTL: No_80_Comanche_Dance_Song_(a).krn
!!!LING_GROUP: Keresan
!!!LANG: Tone
!!!REG: Southwest
**kern
*staff1
=1-
=
*clefF4
*k[f#]
*M2/4
2B\
=2
(8.A\L
16E\Jk)
8.E\L
16E\Jk
=3
(8.G\L
16E\Jk)
(8.E\L
16D#\Jk)
=4
4.E\
8D\
=5
*M3/4
4E\
4E\
8E\
8r
=6
*M2/4
2B\
=7
(8.A\L
16E\Jk)
8.E\L
16E\Jk
=8
8.G\L
16E\Jk
8.E\L
16D#\Jk
=9
4.E\
8D\
=10
*M3/4
4E\
4E\
8E\
8r
=11
8.A\L
16A\Jk
8A\
8r
8.A\L
16A\Jk
=12
*M2/4
(4B\
4A\)
=13
4G\
8E\
8r
=14
4B\
8A\L
8A\J
=15
8A\L
16E\L
16E\JJ
16G\LL
(16G\J
8E\J)
=16
*M3/4
4A\
4A\
8B\L
8A\J
=17
*M2/4
4G\
8E\L
8D#\J
=18
4E\
4E\
=19
4E\
8E\
8r
=20
*M3/4
4E\
4E\
4E\
=21
*M2/4
4E\
4E\
=22
*M3/4
4G\
4G\
16G\
16r
8E\
=23
*M2/4
4..G\
16E\
=24
8G\L
8E\J
8E\L
8D\J
=25
*M3/4
4E\
4E\
8E\
8r
=26
8G\L
8G\J
16G\
16r
8E\
=27
4..G\
16E\
=28
8G\L
8E\J
8E\L
8D#\J
=29
*M3/4
4E\
4E\
8E\
8r
=30:|!
*M2/4
8E\L
8E\J
8E\
8r
==
*-
